dist/img/catalog/chars/speed.svg

<svg width="21" height="16" viewBox="0 0 21 16" fill="none" xmlns="http://www.w3.org/2000/svg">
<path d="M10.6542 7.72209C10.4791 7.69564 10.3033 7.6775 10.1279 7.6775C8.97626 7.6775 7.82539 8.17134 7.20791 9.18418C6.28749 10.6945 6.86416 12.6978 8.45829 13.5694C8.98331 13.8567 9.55957 13.921 10.125 13.921C11.2766 13.921 12.4245 13.355 13.0417 12.3421C13.7383 11.199 13.5629 9.88721 12.7604 8.90355L13.875 4.8421L10.6542 7.72209ZM11.5679 11.6245C11.2712 12.1116 10.72 12.3421 10.125 12.3421C9.83126 12.3421 9.54914 12.3429 9.29206 12.202C8.49622 11.767 8.22288 10.7995 8.68204 10.0459C8.97878 9.55884 9.53294 9.25605 10.1283 9.25605C10.4216 9.25605 10.7008 9.3275 10.9579 9.46802C11.7537 9.90343 12.027 10.8705 11.5679 11.6245ZM10.125 0.5C4.60208 0.5 0.125 5.01302 0.125 10.3684C0.125 12.3263 0.725416 13.9759 1.75458 15.5H5.95833V13.921H2.62499C2.02208 12.7846 1.79167 11.6596 1.79167 10.3684C1.79167 5.91263 5.53 2.07895 10.125 2.07895C14.72 2.07895 18.4583 5.91263 18.4583 10.3684C18.4583 11.6596 18.2279 12.7846 17.625 13.921H14.2916V15.5H18.4583C19.4875 13.9759 20.125 12.3263 20.125 10.3684C20.125 5.01302 15.6479 0.5 10.125 0.5Z" fill="#0F0908"/>
</svg>

<svg width="21" height="16" viewBox="0 0 21 16" fill="none" xmlns="http://www.w3.org/2000/svg"><path d="M10.654 7.722a3.53 3.53 0 00-.526-.045c-1.152 0-2.303.494-2.92 1.507-.92 1.51-.344 3.514 1.25 4.385.525.288 1.102.352 1.667.352 1.152 0 2.3-.566 2.917-1.579.696-1.143.52-2.455-.282-3.438l1.115-4.062-3.22 2.88zm.914 3.902c-.297.488-.848.718-1.443.718-.294 0-.576 0-.833-.14-.796-.435-1.07-1.402-.61-2.156.297-.487.85-.79 1.446-.79.294 0 .573.072.83.212.796.435 1.069 1.402.61 2.156zM10.125.5c-5.523 0-10 4.513-10 9.868 0 1.958.6 3.608 1.63 5.132h4.203v-1.579H2.625c-.603-1.136-.833-2.261-.833-3.553 0-4.455 3.738-8.29 8.333-8.29 4.595.001 8.333 3.835 8.333 8.29 0 1.292-.23 2.417-.833 3.553h-3.333V15.5h4.166c1.03-1.524 1.667-3.174 1.667-5.132 0-5.355-4.477-9.868-10-9.868z" fill="#0F0908"/></svg>
